X: 34456
T: Rideau Lake Jig, The
R: slide
M: 12/8
K: Dmajor
|:D2 F A2 d f2 d A3|GFG E2 G B2 A GFE|
D2 F A2 d f2 d AGF|GE/F/G EFE D3 D3:|
|:d2 f a2 g b2 f a2 f|g2 f ec/d/e e2 d cBA|
d2 f a3 baf a2 f|gfg ecA d3 d3:|

